src/assets/icons/weeks,fancy,22.svg

<svg width="48" height="48" viewBox="0 0 48 48" fill="none" xmlns="http://www.w3.org/2000/svg">
<rect opacity="0.2" x="4" y="6" width="40" height="40" rx="4" fill="black"/>
<path d="M8.01385 41H22.5309V37.4801H13.9798V37.3409L16.9528 34.4276C21.1388 30.6094 22.2624 28.7003 22.2624 26.3835C22.2624 22.8537 19.3789 20.358 15.0138 20.358C10.7383 20.358 7.80504 22.9134 7.81499 26.9105H11.9016C11.8917 24.9616 13.1246 23.7685 14.984 23.7685C16.7738 23.7685 18.1062 24.8821 18.1062 26.6719C18.1062 28.2926 17.1119 29.4062 15.2624 31.1861L8.01385 37.8977V41ZM25.6506 41H40.1676V37.4801H31.6165V37.3409L34.5895 34.4276C38.7756 30.6094 39.8991 28.7003 39.8991 26.3835C39.8991 22.8537 37.0156 20.358 32.6506 20.358C28.375 20.358 25.4418 22.9134 25.4517 26.9105H29.5384C29.5284 24.9616 30.7614 23.7685 32.6207 23.7685C34.4105 23.7685 35.7429 24.8821 35.7429 26.6719C35.7429 28.2926 34.7486 29.4062 32.8991 31.1861L25.6506 37.8977V41Z" fill="black"/>
<g opacity="0.4">
<path d="M10 4C10 2.89543 10.8954 2 12 2C13.1046 2 14 2.89543 14 4V8C14 9.10457 13.1046 10 12 10C10.8954 10 10 9.10457 10 8V4Z" fill="black"/>
<path d="M34 4C34 2.89543 34.8954 2 36 2C37.1046 2 38 2.89543 38 4V8C38 9.10457 37.1046 10 36 10C34.8954 10 34 9.10457 34 8V4Z" fill="black"/>
</g>
<path fill-rule="evenodd" clip-rule="evenodd" d="M10 6.00869C7.52043 6.04456 6.11466 6.22849 5.17157 7.17157C4 8.34315 4 10.2288 4 14V16H44V14C44 10.2288 44 8.34315 42.8284 7.17157C41.8853 6.22849 40.4796 6.04456 38 6.00869V8C38 9.10457 37.1046 10 36 10C34.8954 10 34 9.10457 34 8V6H14V8C14 9.10457 13.1046 10 12 10C10.8954 10 10 9.10457 10 8V6.00869Z" fill="black"/>
</svg>

<svg xmlns="http://www.w3.org/2000/svg" width="48" height="48" fill="none" viewBox="0 0 48 48">
  <rect width="40" height="40" x="4" y="6" fill="#000" opacity=".2" rx="4"/>
  <path fill="#000" d="M8.014 41H22.53v-3.52H13.98v-.14l2.973-2.912c4.186-3.819 5.31-5.728 5.31-8.044 0-3.53-2.884-6.026-7.25-6.026-4.275 0-7.208 2.555-7.198 6.552h4.087c-.01-1.948 1.223-3.142 3.082-3.142 1.79 0 3.122 1.114 3.122 2.904 0 1.62-.994 2.734-2.844 4.514l-7.248 6.712V41zm17.637 0h14.517v-3.52h-8.552v-.14l2.974-2.912c4.186-3.819 5.31-5.728 5.31-8.044 0-3.53-2.884-6.026-7.25-6.026-4.275 0-7.208 2.555-7.198 6.552h4.086c-.01-1.948 1.223-3.142 3.083-3.142 1.79 0 3.122 1.114 3.122 2.904 0 1.62-.994 2.734-2.844 4.514l-7.248 6.712V41z"/>
  <g opacity=".4">
    <path fill="#000" d="M10 4a2 2 0 114 0v4a2 2 0 11-4 0V4zM34 4a2 2 0 114 0v4a2 2 0 11-4 0V4z"/>
  </g>
  <path fill="#000" fill-rule="evenodd" d="M10 6.009c-2.48.036-3.885.22-4.828 1.163C4 8.343 4 10.229 4 14v2h40v-2c0-3.771 0-5.657-1.172-6.828-.943-.944-2.348-1.127-4.828-1.163V8a2 2 0 11-4 0V6H14v2a2 2 0 11-4 0V6.009z" clip-rule="evenodd"/>
</svg>
